X: 1
T: Carolan's Farewell To Music
M: 4/4
L: 1/8
R: reel
K: Ador
E | A2 AB c2 (3cBA | G>A B/2d/2e/2f/2 g>a b/2a/2g/2e/2 |
e>d B/d/e/f/ g>e e/d/B | e>d Bc Ac B/A/G/E/ | A2 AB c2 c/B/A |
AA (3BAG {A}a>g (3abc' | e2 eg d2 de | cB B/A/B/c/ A3 ||
e | a2 ab ag ab | ag ab ac' b/a/g/e/ | g2 ga ge ga |
ba gb ac' b/a/g/e/ | a3 g ag ab | (3abc' (3abc' ba ge |
gf ga b/c'/a/b/ g/a/f/g/ | e/f/d/e/ c/d/B/c/ A>c B/A/G/E/ | A2 AB c2 c/B/A |
B2 (3BAG a>b (3abc' | e2 eg d2 de | cB B/A/B/c/ A3 |]
